img/favicon.svg

<svg version="1.0" xmlns="http://www.w3.org/2000/svg" color-interpolation-filters="sRGB" height="64" width="64"><svg width="100" height="100" style="overflow:visible" fill="#488fe0" opacity=".943"><g mask="url(#a)"><svg viewBox="0.034 -0.003 291.276 284.776" style="overflow:visible" width="60" height="58.661" filter="url(#b)"><path d="M287.78 192.13c-2.19-3.91-.23-7.53-3.19-10.37-1 4.75 0 9 3.13 11.17 3.31 2.34 3.12 6.07 1.93 7.15-3.3 3-.53 5.67-.72 8.4a80.74 80.74 0 0 1-4.87 22.8c-1 2.82-2.21 5.5-2.43 8.57-.14 2-.27 3.66-3.41 4.34-3.49.74-4.35 5-6 8.18 1.91.42 2.17-2.48 4.56-1.06-1.78 7.69-6.5 13.69-12.14 19.17a2 2 0 0 1-2.28.32c-4.11-1.65-6-.41-5.79 3.75.05 1.08-.61 1.42-1.29 1.87a27 27 0 0 1-8 3.93c-1 .24-2.08 1.13-2.75-.8-.87-2.5-1.54-2.7-3.38-.79-6.51 6.77-14.81 4.48-22.54 5.16 5.1-4.29 11.7-3.73 17.49-6 8.93-3.48 17.3-7.29 23.77-14.56.63-.7 1.42-1.82 2.42-1.2.51.31.39 1.63.79 3.76.85-5.3 6.34-8 3.41-13.31-1.72-.05-2.1 1.49-2.88 2.38-10.86 12.47-24.2 20.27-40.89 21.37-9.93.65-19.32 4.36-29.42 4.27s-20.08 1.35-30.12-.22c-2-.32-4-.32-5.71 1a5 5 0 0 1-4.32.71c-6.17-1.51-12.25-.07-18.28.68-5.69.7-10.92-1.62-16.68-1.31-7.47.41-14.78 2-22.23 2.18-2.21.06-5 2-6.49-1.52-.09-.21-.92-.37-1.23-.2-11.19 5.89-21.73 1.31-32.08-2.42-10-3.62-19.11-9.44-27.67-15.68-8.15-5.94-12.56-14.73-14-24.76-.39-2.69-2.86-3.8-3.65-6.27-2.33-7.32-2.27-14.57-1.29-22.1.78-6 1.23-12.19-1.19-18.14-.88 4.42-2.68 8.53-1.36 13.25.9 3.21 3 7.24-2.41 9.18-1.34.48-.12 1.79.31 2.47 2 3.18 2.54 6.8 3.31 10.37 3.93 18.24 11.86 34.1 27.16 45.58a22.14 22.14 0 0 1 2.67 2.24 2.57 2.57 0 0 1 .46 3.2c-.92 1.23-2.14.25-3.05-.37a76 76 0 0 1-15.85-14.37c-5.93-7.1-11.34-14.85-13-23.88-1.95-10.33-5.31-20.38-4.84-31.33.79-18.27.29-36.61.11-54.92-.13-12.75-1.42-25.49-.55-38.25.19-2.81.05-5.69.68-8.39a29.76 29.76 0 0 0-1.5-18 6.94 6.94 0 0 1 .38-5.82A10.24 10.24 0 0 0 1 74a4.88 4.88 0 0 1-.61-2.83C2.72 61.38 3.45 51.15 10.6 43c3.4-3.92 5.45-9 8.09-13.5 1.38-2.38 2.45-4.57 5.64-5.69 4.08-1.43 5.53-6.69 9.84-8.39 1.84-.73 3.12-4.78 5.65-.78.12.18 1.27-.13 1.83-.42a14.62 14.62 0 0 0 3.39-2c2.92-2.73 9.23-1.58 9.85-4C56.2 3 60 3.59 63.08 2.27a20.05 20.05 0 0 1 11.79-1.15C80.6 2.28 86 1.57 91.61.45c2.33-.46 5-1 7 1.32.21.25.55.68.7.63 7.68-2.5 15.38 4.25 23.32-.51 4.23-2.54 9.55-2 14.65-1.36a112.77 112.77 0 0 0 15.93.38c7.69-.16 15.28.18 22.7 2.42a22.67 22.67 0 0 0 8.88.58c-.33-1.23-2-.37-2.27-2.41 4-.09 8.11-1.55 12 .89 1.48.94 2.44-.19 3.64-.19 2 0 4-.23 6-.13 3 .13 7.69-1.15 8 2.76.34 4.11-4.67 1.6-7 2.94 4.42 1 8.17 0 11.21-3.52a7.27 7.27 0 0 1 5.81-2.32c10-.08 18.71 3.34 27.14 8.41 4.57 2.76 8.42 6.49 13.62 8.49s9 6.41 12.39 10.94a84.94 84.94 0 0 1 8.75 15.67c1.14 2.5 3.3 4.75.05 7.73-1.49 1.37-.83 4.36.92 7l1-4.44c2.23 10 6.33 19.66 5 30.1-.25 2 .75 4.93-3.5 4.28-2.15-.33-1.38 2.28-1.25 3.54.39 3.63 2.35 7.63 1.36 10.76-1.86 5.92.14 10.81 1.88 16 .93 2.76-.46 5.23-.62 7.85-.63 10.58.94 21.11-.21 31.8a65.59 65.59 0 0 0 .6 16c.69 4.87-.31 9.94-1.53 16.07zm-277.18-.37c-.15-11.77 2.12-23.74-2.44-36-1.77 12.79-1.84 24.57 2.44 36zM242.87 23.17c-6.62-8-38.63-10.38-47.59-6.25 16.29 3.08 33.02-3.81 47.59 6.25zM166.3 6.07c-12.51-.63-25.09-2-37.22 2l.07 1.48h9.06l-3.44-.87c11.14-2.47 21.69 2.25 31.53-2.61zM3.94 113.75c-.82 6 3.36 10.93 3.51 16.92s-2 12.21.7 19.42c2.28-15.46-.18-29.72-.54-44-2.92 4 .4 8.5-.52 13.2-2.29-1.95-1.63-4.1-3.15-5.54zm53.34-103.1c1.36 1.26 2.4 1.19 3.27.67 7.62-4.47 16-3.25 24.24-3.38a17.33 17.33 0 0 0 4-.26c1.37-.34 3.36-.77 3-2.63-.41-2.25-2.32-1.33-3.63-.85-6.53 2.37-13.3 2-20.07 2.32-3.76.16-7.97.48-10.81 4.13z"/><defs><filter id="b"><feColorMatrix values="0 0 0 0 0.16015625 0 0 0 0 0.3984375 0 0 0 0 0.796875 0 0 0 1 0"/></filter></defs></svg></g><mask id="a"><svg viewBox="0.034 -0.003 291.276 284.776" width="60" height="58.661" fill="#fff"><path d="M287.78 192.13c-2.19-3.91-.23-7.53-3.19-10.37-1 4.75 0 9 3.13 11.17 3.31 2.34 3.12 6.07 1.93 7.15-3.3 3-.53 5.67-.72 8.4a80.74 80.74 0 0 1-4.87 22.8c-1 2.82-2.21 5.5-2.43 8.57-.14 2-.27 3.66-3.41 4.34-3.49.74-4.35 5-6 8.18 1.91.42 2.17-2.48 4.56-1.06-1.78 7.69-6.5 13.69-12.14 19.17a2 2 0 0 1-2.28.32c-4.11-1.65-6-.41-5.79 3.75.05 1.08-.61 1.42-1.29 1.87a27 27 0 0 1-8 3.93c-1 .24-2.08 1.13-2.75-.8-.87-2.5-1.54-2.7-3.38-.79-6.51 6.77-14.81 4.48-22.54 5.16 5.1-4.29 11.7-3.73 17.49-6 8.93-3.48 17.3-7.29 23.77-14.56.63-.7 1.42-1.82 2.42-1.2.51.31.39 1.63.79 3.76.85-5.3 6.34-8 3.41-13.31-1.72-.05-2.1 1.49-2.88 2.38-10.86 12.47-24.2 20.27-40.89 21.37-9.93.65-19.32 4.36-29.42 4.27s-20.08 1.35-30.12-.22c-2-.32-4-.32-5.71 1a5 5 0 0 1-4.32.71c-6.17-1.51-12.25-.07-18.28.68-5.69.7-10.92-1.62-16.68-1.31-7.47.41-14.78 2-22.23 2.18-2.21.06-5 2-6.49-1.52-.09-.21-.92-.37-1.23-.2-11.19 5.89-21.73 1.31-32.08-2.42-10-3.62-19.11-9.44-27.67-15.68-8.15-5.94-12.56-14.73-14-24.76-.39-2.69-2.86-3.8-3.65-6.27-2.33-7.32-2.27-14.57-1.29-22.1.78-6 1.23-12.19-1.19-18.14-.88 4.42-2.68 8.53-1.36 13.25.9 3.21 3 7.24-2.41 9.18-1.34.48-.12 1.79.31 2.47 2 3.18 2.54 6.8 3.31 10.37 3.93 18.24 11.86 34.1 27.16 45.58a22.14 22.14 0 0 1 2.67 2.24 2.57 2.57 0 0 1 .46 3.2c-.92 1.23-2.14.25-3.05-.37a76 76 0 0 1-15.85-14.37c-5.93-7.1-11.34-14.85-13-23.88-1.95-10.33-5.31-20.38-4.84-31.33.79-18.27.29-36.61.11-54.92-.13-12.75-1.42-25.49-.55-38.25.19-2.81.05-5.69.68-8.39a29.76 29.76 0 0 0-1.5-18 6.94 6.94 0 0 1 .38-5.82A10.24 10.24 0 0 0 1 74a4.88 4.88 0 0 1-.61-2.83C2.72 61.38 3.45 51.15 10.6 43c3.4-3.92 5.45-9 8.09-13.5 1.38-2.38 2.45-4.57 5.64-5.69 4.08-1.43 5.53-6.69 9.84-8.39 1.84-.73 3.12-4.78 5.65-.78.12.18 1.27-.13 1.83-.42a14.62 14.62 0 0 0 3.39-2c2.92-2.73 9.23-1.58 9.85-4C56.2 3 60 3.59 63.08 2.27a20.05 20.05 0 0 1 11.79-1.15C80.6 2.28 86 1.57 91.61.45c2.33-.46 5-1 7 1.32.21.25.55.68.7.63 7.68-2.5 15.38 4.25 23.32-.51 4.23-2.54 9.55-2 14.65-1.36a112.77 112.77 0 0 0 15.93.38c7.69-.16 15.28.18 22.7 2.42a22.67 22.67 0 0 0 8.88.58c-.33-1.23-2-.37-2.27-2.41 4-.09 8.11-1.55 12 .89 1.48.94 2.44-.19 3.64-.19 2 0 4-.23 6-.13 3 .13 7.69-1.15 8 2.76.34 4.11-4.67 1.6-7 2.94 4.42 1 8.17 0 11.21-3.52a7.27 7.27 0 0 1 5.81-2.32c10-.08 18.71 3.34 27.14 8.41 4.57 2.76 8.42 6.49 13.62 8.49s9 6.41 12.39 10.94a84.94 84.94 0 0 1 8.75 15.67c1.14 2.5 3.3 4.75.05 7.73-1.49 1.37-.83 4.36.92 7l1-4.44c2.23 10 6.33 19.66 5 30.1-.25 2 .75 4.93-3.5 4.28-2.15-.33-1.38 2.28-1.25 3.54.39 3.63 2.35 7.63 1.36 10.76-1.86 5.92.14 10.81 1.88 16 .93 2.76-.46 5.23-.62 7.85-.63 10.58.94 21.11-.21 31.8a65.59 65.59 0 0 0 .6 16c.69 4.87-.31 9.94-1.53 16.07zm-277.18-.37c-.15-11.77 2.12-23.74-2.44-36-1.77 12.79-1.84 24.57 2.44 36zM242.87 23.17c-6.62-8-38.63-10.38-47.59-6.25 16.29 3.08 33.02-3.81 47.59 6.25zM166.3 6.07c-12.51-.63-25.09-2-37.22 2l.07 1.48h9.06l-3.44-.87c11.14-2.47 21.69 2.25 31.53-2.61zM3.94 113.75c-.82 6 3.36 10.93 3.51 16.92s-2 12.21.7 19.42c2.28-15.46-.18-29.72-.54-44-2.92 4 .4 8.5-.52 13.2-2.29-1.95-1.63-4.1-3.15-5.54zm53.34-103.1c1.36 1.26 2.4 1.19 3.27.67 7.62-4.47 16-3.25 24.24-3.38a17.33 17.33 0 0 0 4-.26c1.37-.34 3.36-.77 3-2.63-.41-2.25-2.32-1.33-3.63-.85-6.53 2.37-13.3 2-20.07 2.32-3.76.16-7.97.48-10.81 4.13z"/></svg><svg viewBox="0 0 47.179 51.588" width="45" height="43.996" x="7.5" y="7.333" fill="#000"><path transform="translate(-.027 50.832)" d="M37.51-12.96H9.86L4.18-.58q-.29.58-.83.94t-1.3.4Q1.3.79.72.11.14-.58.04-1.15q-.11-.58.18-1.15l18.93-43.35q1.66-3.74 2.63-4.46.97-.72 1.91-.72.86 0 1.87.61 1.01.61 1.51 1.76L46.3-4.25q1 2.23.9 2.99-.11.76-.76 1.37-.65.61-1.51.54-.72 0-1.3-.43-.57-.44-1.15-1.8l-4.97-11.38Zm-25.92-4.25H36l-.94-2.16-10.15-23.9q-.72-1.66-1.11-1.62-.4.03-.83 1.04L11.59-17.21Z"/></svg></mask></svg></svg>

<svg version="1.0" xmlns="http://www.w3.org/2000/svg" color-interpolation-filters="sRGB" height="64px" width="64px">
    <g fill="#488fe0" opacity="0.9431017896156073">
        <svg x="0" y="0" width="100" height="100" style="overflow: visible;">
            <g hollow-target="iconBnFill" mask="url(#mask1)">
                <svg viewBox="0.03419 -0.0032 291.27557 284.77563" style="overflow: visible;" width="60"
                    height="58.661348037777906" x="0" y="0" filter="url(#filter1)">
                    <path
                        d="M287.78 192.13c-2.19-3.91-.23-7.53-3.19-10.37-1 4.75 0 9 3.13 11.17 3.31 2.34 3.12 6.07 1.93 7.15-3.3 3-.53 5.67-.72 8.4a80.74 80.74 0 0 1-4.87 22.8c-1 2.82-2.21 5.5-2.43 8.57-.14 2-.27 3.66-3.41 4.34-3.49.74-4.35 5-6 8.18 1.91.42 2.17-2.48 4.56-1.06-1.78 7.69-6.5 13.69-12.14 19.17a2 2 0 0 1-2.28.32c-4.11-1.65-6-.41-5.79 3.75.05 1.08-.61 1.42-1.29 1.87a27 27 0 0 1-8 3.93c-1 .24-2.08 1.13-2.75-.8-.87-2.5-1.54-2.7-3.38-.79-6.51 6.77-14.81 4.48-22.54 5.16 5.1-4.29 11.7-3.73 17.49-6 8.93-3.48 17.3-7.29 23.77-14.56.63-.7 1.42-1.82 2.42-1.2.51.31.39 1.63.79 3.76.85-5.3 6.34-8 3.41-13.31-1.72-.05-2.1 1.49-2.88 2.38-10.86 12.47-24.2 20.27-40.89 21.37-9.93.65-19.32 4.36-29.42 4.27s-20.08 1.35-30.12-.22c-2-.32-4-.32-5.71 1a5 5 0 0 1-4.32.71c-6.17-1.51-12.25-.07-18.28.68-5.69.7-10.92-1.62-16.68-1.31-7.47.41-14.78 2-22.23 2.18-2.21.06-5 2-6.49-1.52-.09-.21-.92-.37-1.23-.2-11.19 5.89-21.73 1.31-32.08-2.42-10-3.62-19.11-9.44-27.67-15.68-8.15-5.94-12.56-14.73-14-24.76-.39-2.69-2.86-3.8-3.65-6.27-2.33-7.32-2.27-14.57-1.29-22.1.78-6 1.23-12.19-1.19-18.14-.88 4.42-2.68 8.53-1.36 13.25.9 3.21 3 7.24-2.41 9.18-1.34.48-.12 1.79.31 2.47 2 3.18 2.54 6.8 3.31 10.37 3.93 18.24 11.86 34.1 27.16 45.58a22.14 22.14 0 0 1 2.67 2.24 2.57 2.57 0 0 1 .46 3.2c-.92 1.23-2.14.25-3.05-.37a76 76 0 0 1-15.85-14.37c-5.93-7.1-11.34-14.85-13-23.88-1.95-10.33-5.31-20.38-4.84-31.33.79-18.27.29-36.61.11-54.92-.13-12.75-1.42-25.49-.55-38.25.19-2.81.05-5.69.68-8.39a29.76 29.76 0 0 0-1.5-18 6.94 6.94 0 0 1 .38-5.82A10.24 10.24 0 0 0 1 74a4.88 4.88 0 0 1-.61-2.83C2.72 61.38 3.45 51.15 10.6 43c3.4-3.92 5.45-9 8.09-13.5 1.38-2.38 2.45-4.57 5.64-5.69 4.08-1.43 5.53-6.69 9.84-8.39 1.84-.73 3.12-4.78 5.65-.78.12.18 1.27-.13 1.83-.42a14.62 14.62 0 0 0 3.39-2c2.92-2.73 9.23-1.58 9.85-4C56.2 3 60 3.59 63.08 2.27a20.05 20.05 0 0 1 11.79-1.15C80.6 2.28 86 1.57 91.61.45c2.33-.46 5-1 7 1.32.21.25.55.68.7.63 7.68-2.5 15.38 4.25 23.32-.51 4.23-2.54 9.55-2 14.65-1.36a112.77 112.77 0 0 0 15.93.38c7.69-.16 15.28.18 22.7 2.42a22.67 22.67 0 0 0 8.88.58c-.33-1.23-2-.37-2.27-2.41 4-.09 8.11-1.55 12 .89 1.48.94 2.44-.19 3.64-.19 2 0 4-.23 6-.13 3 .13 7.69-1.15 8 2.76.34 4.11-4.67 1.6-7 2.94 4.42 1 8.17 0 11.21-3.52a7.27 7.27 0 0 1 5.81-2.32c10-.08 18.71 3.34 27.14 8.41 4.57 2.76 8.42 6.49 13.62 8.49s9 6.41 12.39 10.94a84.94 84.94 0 0 1 8.75 15.67c1.14 2.5 3.3 4.75.05 7.73-1.49 1.37-.83 4.36.92 7l1-4.44c2.23 10 6.33 19.66 5 30.1-.25 2 .75 4.93-3.5 4.28-2.15-.33-1.38 2.28-1.25 3.54.39 3.63 2.35 7.63 1.36 10.76-1.86 5.92.14 10.81 1.88 16 .93 2.76-.46 5.23-.62 7.85-.63 10.58.94 21.11-.21 31.8a65.59 65.59 0 0 0 .6 16c.69 4.87-.31 9.94-1.53 16.07zm-277.18-.37c-.15-11.77 2.12-23.74-2.44-36-1.77 12.79-1.84 24.57 2.44 36zM242.87 23.17c-6.62-8-38.63-10.38-47.59-6.25 16.29 3.08 33.02-3.81 47.59 6.25zM166.3 6.07c-12.51-.63-25.09-2-37.22 2l.07 1.48h9.06l-3.44-.87c11.14-2.47 21.69 2.25 31.53-2.61zM3.94 113.75c-.82 6 3.36 10.93 3.51 16.92s-2 12.21.7 19.42c2.28-15.46-.18-29.72-.54-44-2.92 4 .4 8.5-.52 13.2-2.29-1.95-1.63-4.1-3.15-5.54zm53.34-103.1c1.36 1.26 2.4 1.19 3.27.67 7.62-4.47 16-3.25 24.24-3.38a17.33 17.33 0 0 0 4-.26c1.37-.34 3.36-.77 3-2.63-.41-2.25-2.32-1.33-3.63-.85-6.53 2.37-13.3 2-20.07 2.32-3.76.16-7.97.48-10.81 4.13z">
                    </path>
                    <defs>
                        <filter id="filter1">
                            <feColorMatrix type="matrix"
                                values="0 0 0 0 0.16015625  0 0 0 0 0.3984375  0 0 0 0 0.796875  0 0 0 1 0">
                            </feColorMatrix>
                        </filter>
                    </defs>
                </svg>
            </g>
            <mask id="mask1">
                <g fill="white">
                    <svg viewBox="0.03419 -0.0032 291.27557 284.77563" width="60" height="58.661348037777906" x="0"
                        y="0">
                        <path
                            d="M287.78 192.13c-2.19-3.91-.23-7.53-3.19-10.37-1 4.75 0 9 3.13 11.17 3.31 2.34 3.12 6.07 1.93 7.15-3.3 3-.53 5.67-.72 8.4a80.74 80.74 0 0 1-4.87 22.8c-1 2.82-2.21 5.5-2.43 8.57-.14 2-.27 3.66-3.41 4.34-3.49.74-4.35 5-6 8.18 1.91.42 2.17-2.48 4.56-1.06-1.78 7.69-6.5 13.69-12.14 19.17a2 2 0 0 1-2.28.32c-4.11-1.65-6-.41-5.79 3.75.05 1.08-.61 1.42-1.29 1.87a27 27 0 0 1-8 3.93c-1 .24-2.08 1.13-2.75-.8-.87-2.5-1.54-2.7-3.38-.79-6.51 6.77-14.81 4.48-22.54 5.16 5.1-4.29 11.7-3.73 17.49-6 8.93-3.48 17.3-7.29 23.77-14.56.63-.7 1.42-1.82 2.42-1.2.51.31.39 1.63.79 3.76.85-5.3 6.34-8 3.41-13.31-1.72-.05-2.1 1.49-2.88 2.38-10.86 12.47-24.2 20.27-40.89 21.37-9.93.65-19.32 4.36-29.42 4.27s-20.08 1.35-30.12-.22c-2-.32-4-.32-5.71 1a5 5 0 0 1-4.32.71c-6.17-1.51-12.25-.07-18.28.68-5.69.7-10.92-1.62-16.68-1.31-7.47.41-14.78 2-22.23 2.18-2.21.06-5 2-6.49-1.52-.09-.21-.92-.37-1.23-.2-11.19 5.89-21.73 1.31-32.08-2.42-10-3.62-19.11-9.44-27.67-15.68-8.15-5.94-12.56-14.73-14-24.76-.39-2.69-2.86-3.8-3.65-6.27-2.33-7.32-2.27-14.57-1.29-22.1.78-6 1.23-12.19-1.19-18.14-.88 4.42-2.68 8.53-1.36 13.25.9 3.21 3 7.24-2.41 9.18-1.34.48-.12 1.79.31 2.47 2 3.18 2.54 6.8 3.31 10.37 3.93 18.24 11.86 34.1 27.16 45.58a22.14 22.14 0 0 1 2.67 2.24 2.57 2.57 0 0 1 .46 3.2c-.92 1.23-2.14.25-3.05-.37a76 76 0 0 1-15.85-14.37c-5.93-7.1-11.34-14.85-13-23.88-1.95-10.33-5.31-20.38-4.84-31.33.79-18.27.29-36.61.11-54.92-.13-12.75-1.42-25.49-.55-38.25.19-2.81.05-5.69.68-8.39a29.76 29.76 0 0 0-1.5-18 6.94 6.94 0 0 1 .38-5.82A10.24 10.24 0 0 0 1 74a4.88 4.88 0 0 1-.61-2.83C2.72 61.38 3.45 51.15 10.6 43c3.4-3.92 5.45-9 8.09-13.5 1.38-2.38 2.45-4.57 5.64-5.69 4.08-1.43 5.53-6.69 9.84-8.39 1.84-.73 3.12-4.78 5.65-.78.12.18 1.27-.13 1.83-.42a14.62 14.62 0 0 0 3.39-2c2.92-2.73 9.23-1.58 9.85-4C56.2 3 60 3.59 63.08 2.27a20.05 20.05 0 0 1 11.79-1.15C80.6 2.28 86 1.57 91.61.45c2.33-.46 5-1 7 1.32.21.25.55.68.7.63 7.68-2.5 15.38 4.25 23.32-.51 4.23-2.54 9.55-2 14.65-1.36a112.77 112.77 0 0 0 15.93.38c7.69-.16 15.28.18 22.7 2.42a22.67 22.67 0 0 0 8.88.58c-.33-1.23-2-.37-2.27-2.41 4-.09 8.11-1.55 12 .89 1.48.94 2.44-.19 3.64-.19 2 0 4-.23 6-.13 3 .13 7.69-1.15 8 2.76.34 4.11-4.67 1.6-7 2.94 4.42 1 8.17 0 11.21-3.52a7.27 7.27 0 0 1 5.81-2.32c10-.08 18.71 3.34 27.14 8.41 4.57 2.76 8.42 6.49 13.62 8.49s9 6.41 12.39 10.94a84.94 84.94 0 0 1 8.75 15.67c1.14 2.5 3.3 4.75.05 7.73-1.49 1.37-.83 4.36.92 7l1-4.44c2.23 10 6.33 19.66 5 30.1-.25 2 .75 4.93-3.5 4.28-2.15-.33-1.38 2.28-1.25 3.54.39 3.63 2.35 7.63 1.36 10.76-1.86 5.92.14 10.81 1.88 16 .93 2.76-.46 5.23-.62 7.85-.63 10.58.94 21.11-.21 31.8a65.59 65.59 0 0 0 .6 16c.69 4.87-.31 9.94-1.53 16.07zm-277.18-.37c-.15-11.77 2.12-23.74-2.44-36-1.77 12.79-1.84 24.57 2.44 36zM242.87 23.17c-6.62-8-38.63-10.38-47.59-6.25 16.29 3.08 33.02-3.81 47.59 6.25zM166.3 6.07c-12.51-.63-25.09-2-37.22 2l.07 1.48h9.06l-3.44-.87c11.14-2.47 21.69 2.25 31.53-2.61zM3.94 113.75c-.82 6 3.36 10.93 3.51 16.92s-2 12.21.7 19.42c2.28-15.46-.18-29.72-.54-44-2.92 4 .4 8.5-.52 13.2-2.29-1.95-1.63-4.1-3.15-5.54zm53.34-103.1c1.36 1.26 2.4 1.19 3.27.67 7.62-4.47 16-3.25 24.24-3.38a17.33 17.33 0 0 0 4-.26c1.37-.34 3.36-.77 3-2.63-.41-2.25-2.32-1.33-3.63-.85-6.53 2.37-13.3 2-20.07 2.32-3.76.16-7.97.48-10.81 4.13z">
                        </path>
                    </svg>
                </g>
                <g fill="black">
                    <svg viewBox="0 0 47.17945161290322 51.58800000000001" width="45" height="43.99601" x="7.5"
                        y="7.332669018888954">
                        <path transform="translate(-0.027000000000000003 50.83200000000001)"
                            d="M37.51-12.96L9.86-12.96L4.18-0.58Q3.89 0 3.35 0.36Q2.81 0.72 2.05 0.76Q1.30 0.79 0.72 0.11Q0.14-0.58 0.04-1.15Q-0.07-1.73 0.22-2.30L0.22-2.30L19.15-45.65Q20.81-49.39 21.78-50.11Q22.75-50.83 23.69-50.83L23.69-50.83Q24.55-50.83 25.56-50.22Q26.57-49.61 27.07-48.46L27.07-48.46L46.30-4.25Q47.30-2.02 47.20-1.26Q47.09-0.50 46.44 0.11Q45.79 0.72 44.93 0.65L44.93 0.65Q44.21 0.65 43.63 0.22Q43.06-0.22 42.48-1.58L42.48-1.58L37.51-12.96ZM11.59-17.21L36.00-17.21L35.06-19.37L24.91-43.27Q24.19-44.93 23.80-44.89Q23.40-44.86 22.97-43.85L22.97-43.85L11.59-17.21Z">
                        </path>
                    </svg>
                </g>
            </mask>
        </svg>
    </g>
</svg>
